rospo-icon-theme-classic-common/64x64/apps/soulseek.svg

<svg height="64" width="64" xmlns="http://www.w3.org/2000/svg"><path d="m32 5c-15.512 0-28 12.488-28 28s12.488 28 28 28 28-12.488 28-28-12.488-28-28-28z" opacity=".2"/><path d="m32 4c-15.512 0-28 12.488-28 28s12.488 28 28 28 28-12.488 28-28-12.488-28-28-28z" fill="#4f4f4f"/><path d="m29.472868 51c-.813254-.22564-1.905896-.633306-2.609588-2.126162-.966154-2.049646-.96459-2.006622-.11856-3.258164 1.173328-1.735792 3.290802-4.823208 3.290802-5.665762 0-.53112-.526582-.949776-1.831042-1.455756-2.810528-1.090168-6.620188-2.933212-8.583908-4.382166-2.405172-1.774684-4.651519-5.102696-5.351252-7.420576-.491937-1.629552-.328316-1.98152.642845-1.382828 5.095759 2.925252 6.688193 3.383472 11.738217 3.841418 3.13759-.13658 5.586466-1.991024 5.463618-4.199354-.10044-1.665802-1.202336-3.083032-1.870352-5.215378-.376724-1.20251-.16722-1.623845-.09848-2.085633.04736-.318282.16874-.610618.269666-.649639.5562.314542.925446.861332 1.459646 1.072276 1.264028.49914 2.597022.505913 3.93954 1.094644 1.372604.701962 1.983562 1.406544 2.289136 2.663892.21944.902936.819724 1.51269 1.43972 2.117128.29383.286452.534248.59564.534248.68708 0 .464942-1.517378.378806-2.764934.02616-1.09688-.31004-1.410904 1.07919-1.29819 2.082824.1687 2.668396 3.643068 2.173896 6.618396 2.405992 2.481348.19356 6.713372-.13244 9.92894-1.51351.67344-.28924 1.320834-.505678 1.438674-.480972-1.096788 4.698594-5.813932 8.69884-9.890508 10.412728-2.010866.812728-4.91409 1.739856-5.78611 1.847756-2.168058.26827-2.911306.552054-3.261782 1.245388-.399516.790306-.98673 4.428624-1.204456 7.1955-.520776 2.31526-2.885314 3.12581-4.384246 3.143094z" opacity=".2"/><path d="m29.472868 50c-.813254-.22564-1.905896-.633306-2.609588-2.126162-.966154-2.049646-.96459-2.006622-.11856-3.258164 1.173328-1.735792 3.290802-4.823208 3.290802-5.665762 0-.53112-.526582-.949776-1.831042-1.455756-2.810528-1.090168-6.620188-2.933212-8.583908-4.382166-2.405172-1.774684-4.651519-5.102696-5.351252-7.420576-.491937-1.629552-.328316-1.98152.642845-1.382828 5.095759 2.925252 6.688193 3.383472 11.738217 3.841418 3.13759-.13658 5.586466-1.991024 5.463618-4.199354-.10044-1.665802-1.202336-3.083032-1.870352-5.215377-.376724-1.202511-.16722-1.623846-.09848-2.085634.04736-.318282.16874-.610618.269666-.649639.5562.314542.925446.861332 1.459646 1.072276 1.264028.49914 2.597022.505913 3.93954 1.094645 1.372604.70196 1.983562 1.406544 2.289136 2.663891.21944.902936.819724 1.51269 1.43972 2.117128.29383.286452.534248.59564.534248.68708 0 .464942-1.517378.378806-2.764934.02616-1.09688-.31004-1.410904 1.07919-1.29819 2.082824.1687 2.668396 3.643068 2.173896 6.618396 2.405992 2.481348.19356 6.713372-.13244 9.92894-1.51351.67344-.28924 1.320834-.505678 1.438674-.480972-1.096788 4.698594-5.813932 8.69884-9.890508 10.412728-2.010866.812728-4.91409 1.739856-5.78611 1.847756-2.168058.26827-2.911306.552054-3.261782 1.245388-.399516.790306-.98673 4.428624-1.204456 7.1955-.520776 2.31526-2.885314 3.12581-4.384246 3.143094z" fill="#4895fb"/><path d="m32 4c-15.512 0-28 12.488-28 28 0 .11345.0112805.224113.0175781.335938.3515432-15.201757 12.6931499-27.335938 27.9824219-27.335938s27.630879 12.134181 27.982422 27.335938c.006298-.111825.017578-.222488.017578-.335938 0-15.512-12.488-28-28-28z" fill="#fff" opacity=".1"/><path d="m30.414062 16c-.100926.039021-.222171.332109-.269531.650391-.052906.35542-.182092.694855-.070312 1.376953.024487-.132255.052065-.254367.070312-.376953.04736-.318282.168605-.61137.269531-.650391.556201.314542.926738.861322 1.460938 1.072266 1.264028.49914 2.596935.505018 3.939453 1.09375 1.372604.70196 1.983489 1.406715 2.289063 2.664062.218736.900042.815714 1.508791 1.433593 2.111328.328808-.034954.539063-.133422.539063-.30664 0-.09144-.239373-.401048-.533203-.6875-.619996-.604438-1.220013-1.214252-1.439453-2.117188-.305574-1.257347-.916459-1.962102-2.289063-2.664062-1.342518-.588732-2.675425-.59461-3.939453-1.09375-.5342-.210944-.904737-.757724-1.460938-1.072266zm-16.082031 8.042969c-.344282-.061427-.384463.299519-.21289 1.042969.136425-.099631.39226-.024369.792968.222656 5.095759 2.925252 6.688258 3.383851 11.738282 3.841797 3.13759-.13658 5.585738-1.990889 5.46289-4.199219-.007012-.116301-.028635-.229544-.044922-.34375-.340085 1.907919-2.597897 3.42021-5.417968 3.542969-5.050024-.457946-6.642523-.916545-11.738282-3.841797-.24279-.149673-.435855-.239893-.580078-.265625zm21.699219 1.820312c-.042388.294056-.048941.601598-.017578.88086.1687 2.668396 3.643813 2.174154 6.61914 2.40625 2.481348.19356 6.712167-.132602 9.927735-1.513672.46018-.197646.840032-.328352 1.115234-.404297.126531-.355063.239206-.711979.324219-1.076172-.11784-.024706-.766013.191229-1.439453.480469-3.215568 1.38107-7.446387 1.707232-9.927735 1.513672-2.927692-.22838-6.332369.239891-6.601562-2.28711zm-6.154297 13.644531c-.494761 1.228416-2.142553 3.642458-3.132812 5.107422-.574245.849487-.748255 1.114214-.50586 1.830078.101168-.224442.265242-.47413.50586-.830078 1.173328-1.735792 3.291015-4.823461 3.291015-5.666015 0-.155989-.060993-.299758-.158203-.441407z" fill="#fff" opacity=".1"/></svg>

<svg xmlns="http://www.w3.org/2000/svg" width="64" height="64" version="1">
 <path style="opacity:0.2" d="M 32,5 C 16.488,5 4,17.488 4,33 4,48.512 16.488,61 32,61 47.512,61 60,48.512 60,33 60,17.488 47.512,5 32,5 Z"/>
 <path style="fill:#4f4f4f" d="M 32,4 C 16.488,4 4,16.488 4,32 4,47.512 16.488,60 32,60 47.512,60 60,47.512 60,32 60,16.488 47.512,4 32,4 Z"/>
 <path style="opacity:0.2" d="m 29.472868,51 c -0.813254,-0.22564 -1.905896,-0.633306 -2.609588,-2.126162 -0.966154,-2.049646 -0.96459,-2.006622 -0.11856,-3.258164 1.173328,-1.735792 3.290802,-4.823208 3.290802,-5.665762 0,-0.53112 -0.526582,-0.949776 -1.831042,-1.455756 -2.810528,-1.090168 -6.620188,-2.933212 -8.583908,-4.382166 -2.405172,-1.774684 -4.651519,-5.102696 -5.351252,-7.420576 -0.491937,-1.629552 -0.328316,-1.98152 0.642845,-1.382828 5.095759,2.925252 6.688193,3.383472 11.738217,3.841418 3.13759,-0.13658 5.586466,-1.991024 5.463618,-4.199354 -0.10044,-1.665802 -1.202336,-3.083032 -1.870352,-5.215378 -0.376724,-1.20251 -0.16722,-1.623845 -0.09848,-2.085633 0.04736,-0.318282 0.16874,-0.610618 0.269666,-0.649639 0.5562,0.314542 0.925446,0.861332 1.459646,1.072276 1.264028,0.49914 2.597022,0.505913 3.93954,1.094644 1.372604,0.701962 1.983562,1.406544 2.289136,2.663892 0.21944,0.902936 0.819724,1.51269 1.43972,2.117128 0.29383,0.286452 0.534248,0.59564 0.534248,0.68708 0,0.464942 -1.517378,0.378806 -2.764934,0.02616 -1.09688,-0.31004 -1.410904,1.07919 -1.29819,2.082824 0.1687,2.668396 3.643068,2.173896 6.618396,2.405992 2.481348,0.19356 6.713372,-0.13244 9.92894,-1.51351 0.67344,-0.28924 1.320834,-0.505678 1.438674,-0.480972 -1.096788,4.698594 -5.813932,8.69884 -9.890508,10.412728 -2.010866,0.812728 -4.91409,1.739856 -5.78611,1.847756 -2.168058,0.26827 -2.911306,0.552054 -3.261782,1.245388 -0.399516,0.790306 -0.98673,4.428624 -1.204456,7.1955 -0.520776,2.31526 -2.885314,3.12581 -4.384246,3.143094 z"/>
 <path style="fill:#4895fb" d="m 29.472868,50 c -0.813254,-0.22564 -1.905896,-0.633306 -2.609588,-2.126162 -0.966154,-2.049646 -0.96459,-2.006622 -0.11856,-3.258164 1.173328,-1.735792 3.290802,-4.823208 3.290802,-5.665762 0,-0.53112 -0.526582,-0.949776 -1.831042,-1.455756 -2.810528,-1.090168 -6.620188,-2.933212 -8.583908,-4.382166 -2.405172,-1.774684 -4.651519,-5.102696 -5.351252,-7.420576 -0.491937,-1.629552 -0.328316,-1.98152 0.642845,-1.382828 5.095759,2.925252 6.688193,3.383472 11.738217,3.841418 3.13759,-0.13658 5.586466,-1.991024 5.463618,-4.199354 -0.10044,-1.665802 -1.202336,-3.083032 -1.870352,-5.215377 -0.376724,-1.202511 -0.16722,-1.623846 -0.09848,-2.085634 0.04736,-0.318282 0.16874,-0.610618 0.269666,-0.649639 0.5562,0.314542 0.925446,0.861332 1.459646,1.072276 1.264028,0.49914 2.597022,0.505913 3.93954,1.094645 1.372604,0.70196 1.983562,1.406544 2.289136,2.663891 0.21944,0.902936 0.819724,1.51269 1.43972,2.117128 0.29383,0.286452 0.534248,0.59564 0.534248,0.68708 0,0.464942 -1.517378,0.378806 -2.764934,0.02616 -1.09688,-0.31004 -1.410904,1.07919 -1.29819,2.082824 0.1687,2.668396 3.643068,2.173896 6.618396,2.405992 2.481348,0.19356 6.713372,-0.13244 9.92894,-1.51351 0.67344,-0.28924 1.320834,-0.505678 1.438674,-0.480972 -1.096788,4.698594 -5.813932,8.69884 -9.890508,10.412728 -2.010866,0.812728 -4.91409,1.739856 -5.78611,1.847756 -2.168058,0.26827 -2.911306,0.552054 -3.261782,1.245388 -0.399516,0.790306 -0.98673,4.428624 -1.204456,7.1955 -0.520776,2.31526 -2.885314,3.12581 -4.384246,3.143094 z"/>
 <path style="opacity:0.1;fill:#ffffff" d="M 32 4 C 16.488 4 4 16.488 4 32 C 4 32.11345 4.0112805 32.224113 4.0175781 32.335938 C 4.3691213 17.134181 16.710728 5 32 5 C 47.289272 5 59.630879 17.134181 59.982422 32.335938 C 59.98872 32.224113 60 32.11345 60 32 C 60 16.488 47.512 4 32 4 z"/>
 <path style="fill:#ffffff;opacity:0.1" d="M 30.414062 16 C 30.313136 16.039021 30.191891 16.332109 30.144531 16.650391 C 30.091625 17.005811 29.962439 17.345246 30.074219 18.027344 C 30.098706 17.895089 30.126284 17.772977 30.144531 17.650391 C 30.191891 17.332109 30.313136 17.039021 30.414062 17 C 30.970263 17.314542 31.3408 17.861322 31.875 18.072266 C 33.139028 18.571406 34.471935 18.577284 35.814453 19.166016 C 37.187057 19.867976 37.797942 20.572731 38.103516 21.830078 C 38.322252 22.73012 38.91923 23.338869 39.537109 23.941406 C 39.865917 23.906452 40.076172 23.807984 40.076172 23.634766 C 40.076172 23.543326 39.836799 23.233718 39.542969 22.947266 C 38.922973 22.342828 38.322956 21.733014 38.103516 20.830078 C 37.797942 19.572731 37.187057 18.867976 35.814453 18.166016 C 34.471935 17.577284 33.139028 17.571406 31.875 17.072266 C 31.3408 16.861322 30.970263 16.314542 30.414062 16 z M 14.332031 24.042969 C 13.987749 23.981542 13.947568 24.342488 14.119141 25.085938 C 14.255566 24.986307 14.511401 25.061569 14.912109 25.308594 C 20.007868 28.233846 21.600367 28.692445 26.650391 29.150391 C 29.787981 29.013811 32.236129 27.159502 32.113281 24.951172 C 32.106269 24.834871 32.084646 24.721628 32.068359 24.607422 C 31.728274 26.515341 29.470462 28.027632 26.650391 28.150391 C 21.600367 27.692445 20.007868 27.233846 14.912109 24.308594 C 14.669319 24.158921 14.476254 24.068701 14.332031 24.042969 z M 36.03125 25.863281 C 35.988862 26.157337 35.982309 26.464879 36.013672 26.744141 C 36.182372 29.412537 39.657485 28.918295 42.632812 29.150391 C 45.11416 29.343951 49.344979 29.017789 52.560547 27.636719 C 53.020727 27.439073 53.400579 27.308367 53.675781 27.232422 C 53.802312 26.877359 53.914987 26.520443 54 26.15625 C 53.88216 26.131544 53.233987 26.347479 52.560547 26.636719 C 49.344979 28.017789 45.11416 28.343951 42.632812 28.150391 C 39.70512 27.922011 36.300443 28.390282 36.03125 25.863281 z M 29.876953 39.507812 C 29.382192 40.736228 27.7344 43.15027 26.744141 44.615234 C 26.169896 45.464721 25.995886 45.729448 26.238281 46.445312 C 26.339449 46.22087 26.503523 45.971182 26.744141 45.615234 C 27.917469 43.879442 30.035156 40.791773 30.035156 39.949219 C 30.035156 39.79323 29.974163 39.649461 29.876953 39.507812 z"/>
</svg>
